epam-assets/icon-sources/18/file-download.svg

<svg xmlns="http://www.w3.org/2000/svg" width="18" height="18" fill="none" viewBox="0 0 18 18">
  <path fill="#6C6F80" fill-rule="evenodd" d="M14.25 7.5h-3V3h-4.5v4.5h-3L9 12.75l5.25-5.25Zm-10.5 6.75v1.5h10.5v-1.5H3.75Z" clip-rule="evenodd"/>
</svg>

<svg width="18" height="18" viewBox="0 0 18 18" fill="none" xmlns="http://www.w3.org/2000/svg">
<g id="18/file-download">
<path id="icon" fill-rule="evenodd" clip-rule="evenodd" d="M14.25 7.5H11.25V3H6.75V7.5H3.75L9 12.75L14.25 7.5ZM3.75 14.25V15.75H14.25V14.25H3.75Z" fill="#6C6F80"/>
</g>
</svg>
